!!!!SEGMENT: pl-cz--iii-592--001-001_rygall-ignacy--applaudite-jubilate-euntre.krn
!!!cenid: 17xx:1095
!!!COM: Rygall, Ignacy
!!!COM-rismID: pe30110281
!!!CDT: <1750->1799
!!!CNT:
!!!OPR: Applaudite jubilate
!!!OTL: Euntre
!!!OMV: 001
!!!PDT:
!!!AGN:
!!!YEC: Copyright 2022 Narodowy Instytut Fryderyka Chopina (https://polishscores.org)
!!!YEM: License CC-BY-4.0 (https://creativecommons.org/licenses/by/4.0)
!!!SMS-siglum: PL-CZ
!!!SMS-shelfmark: III-592
!!!SMS-shelfwork: 001-001 M
!!!SMS-variant:
!!!SMS-altvar:
!!!NIFC-rismSourceID: 300001121
!!!NIFC-rismChildID: 300001121
!!!NIFC-islandoraID: pl-cz:39438
!!!URL-pdf-islandora: https://repozytorium.nifc.pl/islandora/object/pl-cz%3A39438/datastream/PDF/view
!!!URL-scan: https://polish.musicsources.pl/pl/lokalizacje/galeria/rekopisy/6962/1 @EN{Scan on Polish Music Sources Website} @PL{Skany w portalu Dziedzictwo Muzyki Polskiej w otwartym dostępie}
!!!IIIF:
!!!ONB-nifc: UWAGA: części Applaudite jubilate: Euntre, Basso solo – Applaudite jubilate, Aria - Annus desideratus (Allegro molto), Basso solo – Urget filialis (Adagio), Tempo primo – Annus desideratus, Recitativo – Roboent ergo, Coro – Vivat Provincialis Wiktor
!!!AIN: 1 bass 2 cor 2 oboe 1 organ 2 soprn 1 timpa 1 viola 2 violn
!!!key:
**kern	**dynam	**kern	**kern	**dynam	**kern	**dynam	**kern	**kern	**kern	**kern	**kern	**kern	**kern	**kern
*part12	*	*part11	*part10	*	*part9	*	*part8	*part7	*part6	*part5	*part4	*part3	*part2	*part1
*staff12	*	*staff11	*staff10	*	*staff9	*	*staff8	*staff7	*staff6	*staff5	*staff4	*staff3	*staff2	*staff1
*IGcont	*	*IGacmp	*IGacmp	*	*IGacmp	*	*IGsolo	*IGcoro	*IGcoro	*IGacmp	*IGacmp	*IGacmp	*IGacmp	*IGacmp
*ICklav	*	*ICstr	*ICstr	*	*ICstr	*	*ICvox	*ICvox	*ICvox	*ICidio	*ICbras	*ICbras	*ICww	*ICww
*Iorgan	*	*Iviola	*Ivioln	*	*Ivioln	*	*Ibass	*Isoprn	*Isoprn	*Itimpa	*Icor	*Icor	*Ioboe	*Ioboe
*I"Baſso.	*	*I"Alto Viola	*I"Violino Secondo	*	*I"Violino Primo	*	*I"Baſso Solo	*I"Canto IIdo	*I"Canto I'mo	*I"Tympano	*I"Cornu 2do in D.	*I"Cornu I'mo in D	*I"Oboe II'do	*I"Oboe I'mo
*I'org	*	*I'vla	*I'vl 2	*	*I'vl 1	*	*I'B solo	*I'S 2	*I'S 1	*I'timp	*I'cor 2	*I'cor 1	*I'ob 2	*I'ob 1
*clefF4	*	*	*clefG2	*	*clefG2	*	*clefF4	*clefC3	*clefC1	*clefF4	*clefG2	*clefG2	*clefG2	*clefG2
*	*	*	*	*	*	*	*	*	*	*	*ITrd6c10	*ITrd6c10	*	*
*k[f#c#]	*	*	*k[f#c#]	*	*k[f#c#]	*	*k[f#c#]	*k[f#c#]	*k[f#c#]	*k[f#c#f#]	*k[f#c#]	*k[f#c#]	*k[f#c#]	*k[f#c#]
*D:	*	*	*D:	*	*D:	*	*D:	*D:	*D:	*D:	*	*	*D:	*D:
*M4/4	*	*	*M4/4	*	*M4/4	*	*M4/4	*M4/4	*M4/4	*M4/4	*M4/4	*M4/4	*M4/4	*M4/4
*met(c)	*	*	*met(c)	*	*met(c)	*	*met(c)	*met(c)	*met(c)	*met(c)	*met(c)	*met(c)	*met(c)	*met(c)
*2\right	*	*	*2\right	*	*2\right	*	*	*	*	*	*2\right	*2\right	*2\right	*
=1	=1	=1	=1	=1	=1	=1	=1	=1	=1	=1	=1	=1	=1	=1
*Xtuplet	*below	*	*Xtuplet	*	*Xtuplet	*	*	*	*	*	*	*	*	*
!	!	!LO:TX:t=P:problem=brak partii w rkp	!LO:TX:t=allo molto:rj	!	!	!	!LO:TX:t=39\nPause:b	!	!	!	!	!	!	!
!LO:TX:t=allo molto:rj:a	!	!	!	!	!LO:TX:t=allo molto:rj	!	!LO:TX:t=allo molto:rj	!	!	!LO:TX:t=allo molto:rj	!LO:TX:t=allo molto:rj	!LO:TX:t=allo molto:rj	!LO:TX:t=allo molto:rj	!
4.D\	.	1ryy	4.d/	.	4.d/	.	1ryy	1ryy	1ryy	4.D\	4F#/	4d\	4f#/	4dd\
.	.	.	.	.	.	.	.	.	.	.	4r	4r	4r	4r
!	!	!	!	!	!LO:TUP:b:problem=klamra łukowa	!	!	!	!	!	!	!	!	!
24AA\LL	.	.	24A/LL	.	24A/LL	.	.	.	.	8AA\	.	.	.	.
24BB\	.	.	24B/	.	24B/	.	.	.	.	.	.	.	.	.
24C#\JJ	.	.	24c#/JJ	.	24c#/JJ	.	.	.	.	.	.	.	.	.
*	*	*	*	*	*tuplet	*	*	*	*	*	*	*	*	*
8D\L	.	.	8d/L	.	8d|/L	.	.	.	.	8D\L	2r	2r	2r	2r
!	!	!	!	!	!LO:TUP:b:problem=klamra łukowa	!	!	!	!	!	!	!	!	!
24AA\L	.	.	24A/L	.	24A/L	.	.	.	.	8AA\	.	.	.	.
24BB\	.	.	24B/	.	24B/	.	.	.	.	.	.	.	.	.
24C#\JJ	.	.	24c#/JJ	.	24c#/JJ	.	.	.	.	.	.	.	.	.
*	*	*	*	*	*Xtuplet	*	*	*	*	*	*	*	*	*
8D\L	.	.	8d/L	.	8d|/L	.	.	.	.	8D\	.	.	.	.
!	!	!	!	!	!LO:TUP:b:problem=klamra łukowa	!	!	!	!	!	!	!	!	!
24AA\L	.	.	24A/L	.	24A/L	.	.	.	.	8AA\J	.	.	.	.
24BB\	.	.	24B/	.	24B/	.	.	.	.	.	.	.	.	.
24C#\JJ	.	.	24c#/JJ	.	24c#/JJ	.	.	.	.	.	.	.	.	.
=2	=2	=2	=2	=2	=2	=2	=2	=2	=2	=2	=2	=2	=2	=2
8D|\L	.	1ryy	8d|/L	.	8d|/L	.	1ryy	1ryy	1ryy	4D\	4F#/	4d\	4f#/	4dd\
8F#|\	.	.	8f#|/	.	8f#|/	.	.	.	.	.	.	.	.	.
!	!	!	!	!	!LO:SIC:v:o=8g|/	!	!	!	!	!	!	!	!	!
8A|\	.	.	8a|/	.	8a|/	.	.	.	.	4r	4r	4r	4r	4r
!	!	!	!	!	!LO:SIC:v:o=8e|/J	!	!	!	!	!	!	!	!	!
8F#|\J	.	.	8f#|/J	.	8f#|/J	.	.	.	.	.	.	.	.	.
!	!	!	!	!	!LO:SIC:v:o=8f#|/L	!	!	!	!	!	!	!	!	!
8G\L	.	.	8g|/L	.	8g|/L	.	.	.	.	2r	2r	2r	2r	2r
!	!	!	!	!	!LO:SIC:v:o=8d|/	!	!	!	!	!	!	!	!	!
8E\	.	.	8e|/	.	8e|/	.	.	.	.	.	.	.	.	.
8A\	.	.	8a|/	.	8a|/	.	.	.	.	.	.	.	.	.
8C#\J	.	.	8c#|/J	.	8c#|/J	.	.	.	.	.	.	.	.	.
=3	=3	=3	=3	=3	=3	=3	=3	=3	=3	=3	=3	=3	=3	=3
!	!	!	!	!	!LO:N:vis=8.	!	!	!	!	!	!	!	!	!
4.D\	.	1ryy	4.d/	.	4.d/LL	.	1ryy	1ryy	1ryy	4.D\	4F#/	4d\	4f#/	4dd\
.	.	.	.	.	.	.	.	.	.	.	4r	4r	4r	4r
!	!	!	!	!	!LO:TUP:b:problem=klamra łukowa	!	!	!	!	!	!	!	!	!
24AA\LL	.	.	24A/LL	.	24A/	.	.	.	.	8AA\	.	.	.	.
24BB\	.	.	24B/	.	24B/	.	.	.	.	.	.	.	.	.
24C#\JJ	.	.	24c#/JJ	.	24c#/JJ	.	.	.	.	.	.	.	.	.
8D\L	.	.	8d|/L	.	8d/L	.	.	.	.	8D\L	2r	2r	2r	2r
!	!	!	!LO:TUP:b:problem=klamra łukowa	!	!LO:TUP:b:problem=klamra łukowa	!	!	!	!	!	!	!	!	!
24AA\L	.	.	24A/L	.	24A/L	.	.	.	.	8AA\	.	.	.	.
24BB\	.	.	24B/	.	24B/	.	.	.	.	.	.	.	.	.
24C#\JJ	.	.	24c#/JJ	.	24c#/JJ	.	.	.	.	.	.	.	.	.
8D\L	.	.	8d|/L	.	8d/L	.	.	.	.	8D\	.	.	.	.
!	!	!	!LO:TUP:b:problem=klamra łukowa	!	!LO:TUP:b:problem=klamra łukowa	!	!	!	!	!	!	!	!	!
24AA\L	.	.	24A/L	.	24A/L	.	.	.	.	8AA\J	.	.	.	.
24BB\	.	.	24B/	.	24B/	.	.	.	.	.	.	.	.	.
24C#\JJ	.	.	24c#/JJ	.	24c#/JJ	.	.	.	.	.	.	.	.	.
=4	=4	=4	=4	=4	=4	=4	=4	=4	=4	=4	=4	=4	=4	=4
8D\L	.	1ryy	8d|/L	.	8d|/L	.	1ryy	1ryy	1ryy	4D\	4F#/	4d\	4f#/	4dd\
8F#\	.	.	8f#|/	.	8f#|/	.	.	.	.	.	.	.	.	.
8A\	.	.	8a|/	.	8a|/	.	.	.	.	4r	4r	4r	4r	4r
8F#\J	.	.	8f#|/J	.	8f#|/J	.	.	.	.	.	.	.	.	.
8G\L	.	.	8g|/L	.	8g|/L	.	.	.	.	2r	2r	2r	2r	2r
8E\	.	.	8e|/	.	8e|/	.	.	.	.	.	.	.	.	.
8A\	.	.	8a|/	.	8a|/	.	.	.	.	.	.	.	.	.
8C#\J	.	.	8c#|/J	.	8c#|/J	.	.	.	.	.	.	.	.	.
=5	=5	=5	=5	=5	=5	=5	=5	=5	=5	=5	=5	=5	=5	=5
!	!	!	!LO:LB:g=original	!LO:DY:t=p&colon;	!	!LO:DY:t=p.	!	!	!	!	!	!	!	!
8D\L	.	1ryy	4d/	p	4d/	p	1ryy	1ryy	1ryy	4D\	4F#/	4d\	0r	0r
8D\J	.	.	.	.	.	.	.	.	.	.	.	.	.	.
!	!LO:DY:t=p&colon;	!	!	!	!	!	!	!	!	!	!	!	!	!
8D\L	p	.	4f#/	.	4a\	.	.	.	.	4r	4r	4r	.	.
8D\J	.	.	.	.	.	.	.	.	.	.	.	.	.	.
*tremolo	*	*	*	*	*	*	*	*	*	*	*	*	*	*
!LO:LB:g=original	!	!	!	!	!	!	!	!	!	!	!	!	!	!
8D\L	.	.	4g/	.	4b\	.	.	.	.	2r	2r	2r	.	.
8D\	.	.	.	.	.	.	.	.	.	.	.	.	.	.
8D\	.	.	4e/	.	4cc#\	.	.	.	.	.	.	.	.	.
8D\J	.	.	.	.	.	.	.	.	.	.	.	.	.	.
=6	=6	=6	=6	=6	=6	=6	=6	=6	=6	=6	=6	=6	=6	=6
!	!	!	!	!	!	!	!	!	!	!	!LO:TX:t=2	!	!	!
8D\L	.	1ryy	4f#/	.	4dd\	.	1ryy	1ryy	1ryy	0r	0r	0r	.	.
8D\	.	.	.	.	.	.	.	.	.	.	.	.	.	.
8D\	.	.	4a\	.	4ff#\	.	.	.	.	.	.	.	.	.
8D\J	.	.	.	.	.	.	.	.	.	.	.	.	.	.
!	!	!	!	!	!LO:LB:g=original	!	!	!	!	!	!	!	!	!
8D\L	.	.	4b\	.	16gg\LL	.	.	.	.	.	.	.	.	.
.	.	.	.	.	16ff#\	.	.	.	.	.	.	.	.	.
8D\	.	.	.	.	16gg\	.	.	.	.	.	.	.	.	.
.	.	.	.	.	16aa\JJ	.	.	.	.	.	.	.	.	.
8D\	.	.	4cc#\	.	8gg\L	.	.	.	.	.	.	.	.	.
8D\J	.	.	.	.	8gg\J	.	.	.	.	.	.	.	.	.
=7	=7	=7	=7	=7	=7	=7	=7	=7	=7	=7	=7	=7	=7	=7
8D\L	.	1ryy	4dd\	.	4ff#\	.	1ryy	1ryy	1ryy	.	.	.	1r	1r
8D\	.	.	.	.	.	.	.	.	.	.	.	.	.	.
*	*	*	*tremolo	*	*	*	*	*	*	*	*	*	*	*
*	*	*	*	*	*tremolo	*	*	*	*	*	*	*	*	*
8D\	.	.	16ff#\LL	.	16aa\LL	.	.	.	.	.	.	.	.	.
.	.	.	16ff#\	.	16aa\	.	.	.	.	.	.	.	.	.
8D\J	.	.	16ff#\	.	16aa\	.	.	.	.	.	.	.	.	.
.	.	.	16ff#\JJ	.	16aa\JJ	.	.	.	.	.	.	.	.	.
8D\L	.	.	16gg\LL	.	16bb\LL	.	.	.	.	.	.	.	.	.
.	.	.	16gg\	.	16bb\	.	.	.	.	.	.	.	.	.
8D\	.	.	16gg\	.	16bb\	.	.	.	.	.	.	.	.	.
.	.	.	16gg\JJ	.	16bb\JJ	.	.	.	.	.	.	.	.	.
8D\	.	.	16ee\LL	.	16ccc#\LL	.	.	.	.	.	.	.	.	.
.	.	.	16ee\	.	16ccc#\	.	.	.	.	.	.	.	.	.
8D\J	.	.	16ee\	.	16ccc#\	.	.	.	.	.	.	.	.	.
.	.	.	16ee\JJ	.	16ccc#\JJ	.	.	.	.	.	.	.	.	.
*Xtremolo	*	*	*	*	*	*	*	*	*	*	*	*	*	*
=8	=8	=8	=8	=8	=8	=8	=8	=8	=8	=8	=8	=8	=8	=8
!	!	!	!	!LO:DY:t=fortiſ	!	!LO:DY:t=f&colon;	!	!	!	!	!	!	!	!
8.d\L	.	1ryy	16ff#\LL	ff	16ddd\LL	f	1ryy	1ryy	1ryy	4D\	4F#/	4d\	4dd\	4ff#\
.	.	.	16ff#\	.	16ddd\	.	.	.	.	.	.	.	.	.
.	.	.	16ff#\	.	16ddd\	.	.	.	.	.	.	.	.	.
48A\LL	.	.	16ff#\	.	16ddd\	.	.	.	.	.	.	.	.	.
48B\	.	.	.	.	.	.	.	.	.	.	.	.	.	.
48c#\JJJ	.	.	.	.	.	.	.	.	.	.	.	.	.	.
8.d\L	.	.	16ff#\	.	16ddd\	.	.	.	.	4r	4r	4r	4r	4r
.	.	.	16ff#\	.	16ddd\	.	.	.	.	.	.	.	.	.
.	.	.	16ff#\	.	16ddd\	.	.	.	.	.	.	.	.	.
48A\LL	.	.	16ff#\JJ	.	16ddd\JJ	.	.	.	.	.	.	.	.	.
48B\	.	.	.	.	.	.	.	.	.	.	.	.	.	.
48c#\JJJ	.	.	.	.	.	.	.	.	.	.	.	.	.	.
8d\L	.	.	16ff#\LL	.	16ddd\LL	.	.	.	.	2r	2r	2r	2r	2r
.	.	.	16ff#\	.	16ddd\	.	.	.	.	.	.	.	.	.
8c#\	.	.	16ff#\	.	16ddd\	.	.	.	.	.	.	.	.	.
.	.	.	16ff#\	.	16ddd\	.	.	.	.	.	.	.	.	.
8B\	.	.	16ff#\	.	16ddd\	.	.	.	.	.	.	.	.	.
.	.	.	16ff#\	.	16ddd\	.	.	.	.	.	.	.	.	.
8A#X\J	.	.	16ff#\	.	16ddd\	.	.	.	.	.	.	.	.	.
.	.	.	16ff#\JJ	.	16ddd\JJ	.	.	.	.	.	.	.	.	.
=9	=9	=9	=9	=9	=9	=9	=9	=9	=9	=9	=9	=9	=9	=9
8.B\L	.	1ryy	16ff#\LL	.	16ddd\LL	.	1ryy	1ryy	1ryy	4D\	4F#/	4d\	4dd\	4ff#\
.	.	.	16ff#\	.	16ddd\	.	.	.	.	.	.	.	.	.
.	.	.	16ff#\	.	16ddd\	.	.	.	.	.	.	.	.	.
48F#\LL	.	.	16ff#\	.	16ddd\	.	.	.	.	.	.	.	.	.
48G\	.	.	.	.	.	.	.	.	.	.	.	.	.	.
48A\JJJ	.	.	.	.	.	.	.	.	.	.	.	.	.	.
8.B\L	.	.	16ff#\	.	16ddd\	.	.	.	.	4r	4r	4r	4r	4r
.	.	.	16ff#\	.	16ddd\	.	.	.	.	.	.	.	.	.
.	.	.	16ff#\	.	16ddd\	.	.	.	.	.	.	.	.	.
48F#\LL	.	.	16ff#\JJ	.	16ddd\JJ	.	.	.	.	.	.	.	.	.
48G\	.	.	.	.	.	.	.	.	.	.	.	.	.	.
48A\JJJ	.	.	.	.	.	.	.	.	.	.	.	.	.	.
8B\L	.	.	16ff#\LL	.	16ddd\LL	.	.	.	.	2r	2r	2r	2r	2r
.	.	.	16ff#\	.	16ddd\	.	.	.	.	.	.	.	.	.
8A\	.	.	16ff#\	.	16ddd\	.	.	.	.	.	.	.	.	.
.	.	.	16ff#\	.	16ddd\	.	.	.	.	.	.	.	.	.
8G\	.	.	16ff#\	.	16ddd\	.	.	.	.	.	.	.	.	.
.	.	.	16ff#\	.	16ddd\	.	.	.	.	.	.	.	.	.
8F#\J	.	.	16ff#\	.	16ddd\	.	.	.	.	.	.	.	.	.
.	.	.	16ff#\JJ	.	16ddd\JJ	.	.	.	.	.	.	.	.	.
=10	=10	=10	=10	=10	=10	=10	=10	=10	=10	=10	=10	=10	=10	=10
!	!	!	!	!	!	!	!	!	!	!	!	!LO:LB:g=original	!	!
8G\L	.	1ryy	16ff#\LL	.	16ddd\LL	.	1ryy	1ryy	1ryy	1r	2r	2r	4dd\	4ee\
.	.	.	16ff#\	.	16ddd\	.	.	.	.	.	.	.	.	.
16E\L	.	.	16ff#\	.	16ddd\	.	.	.	.	.	.	.	.	.
16F#\JJ	.	.	16ff#\	.	16ddd\	.	.	.	.	.	.	.	.	.
8G\L	.	.	16ff#\	.	16ddd\	.	.	.	.	.	.	.	4r	4r
.	.	.	16ff#\	.	16ddd\	.	.	.	.	.	.	.	.	.
8E\J	.	.	16ff#\	.	16ddd\	.	.	.	.	.	.	.	.	.
.	.	.	16ff#\JJ	.	16ddd\JJ	.	.	.	.	.	.	.	.	.
8A\L	.	.	16ee\LL	.	16ddd\LL	.	.	.	.	.	4r	4r	4dd\	4ee\
.	.	.	16ee\	.	16ddd\	.	.	.	.	.	.	.	.	.
8A\J	.	.	16ee\	.	16ddd\	.	.	.	.	.	.	.	.	.
.	.	.	16ee\	.	16ddd\JJ	.	.	.	.	.	.	.	.	.
8AA/L	.	.	16ee\	.	16ccc#\LL	.	.	.	.	.	4A/	4e\	4cc#\	4ee\
.	.	.	16ee\	.	16ccc#\	.	.	.	.	.	.	.	.	.
8AA/J	.	.	16ee\	.	16ccc#\	.	.	.	.	.	.	.	.	.
.	.	.	16ee\JJ	.	16ccc#\JJ	.	.	.	.	.	.	.	.	.
*	*	*	*Xtremolo	*	*Xtremolo	*	*	*	*	*	*	*	*	*
=11	=11	=11	=11	=11	=11	=11	=11	=11	=11	=11	=11	=11	=11	=11
!	!	!	!	!	!	!	!	!	!	!	!LO:LB:g=original	!	!LO:LB:g=original	!LO:LB:g=original
8D\L	.	1ryy	4ff#\	.	4ddd\	.	1ryy	1ryy	1ryy	4D\	4F#/	4d\	4dd\	4ff#\
8D\J	.	.	.	.	.	.	.	.	.	.	.	.	.	.
!	!LO:DY:t=p&colon;	!	!	!LO:DY:t=p&colon;	!	!LO:DY:t=p&colon;:rj	!	!	!	!	!	!	!	!
8D\L	p	.	4f#/	p	4a\	p	.	.	.	4r	4r	4r	4r	4r
8D\J	.	.	.	.	.	.	.	.	.	.	.	.	.	.
*tremolo	*	*	*	*	*	*	*	*	*	*	*	*	*	*
8D\L	.	.	4g/	.	4b\	.	.	.	.	2r	2r	2r	2r	2r
8D\	.	.	.	.	.	.	.	.	.	.	.	.	.	.
8D\	.	.	4e/	.	4cc#\	.	.	.	.	.	.	.	.	.
8D\J	.	.	.	.	.	.	.	.	.	.	.	.	.	.
=12	=12	=12	=12	=12	=12	=12	=12	=12	=12	=12	=12	=12	=12	=12
!	!	!	!	!	!	!	!	!	!	!	!LO:TX:t=2	!	!	!LO:TX:t=2:a
8D\L	.	1ryy	4f#/	.	4dd\	.	1ryy	1ryy	1ryy	0r	0r	0r	0r	0r
8D\	.	.	.	.	.	.	.	.	.	.	.	.	.	.
8D\	.	.	4dd\	.	4ff#\	.	.	.	.	.	.	.	.	.
8D\J	.	.	.	.	.	.	.	.	.	.	.	.	.	.
8D\L	.	.	4b\	.	16gg\LL	.	.	.	.	.	.	.	.	.
.	.	.	.	.	16ff#\	.	.	.	.	.	.	.	.	.
8D\	.	.	.	.	16gg\	.	.	.	.	.	.	.	.	.
.	.	.	.	.	16aa\JJ	.	.	.	.	.	.	.	.	.
8D\	.	.	4cc#\	.	8gg\L	.	.	.	.	.	.	.	.	.
8D\J	.	.	.	.	8gg\J	.	.	.	.	.	.	.	.	.
=13	=13	=13	=13	=13	=13	=13	=13	=13	=13	=13	=13	=13	=13	=13
!LO:LB:g=original	!	!	!	!	!	!	!	!	!	!	!	!	!	!
8D\L	.	1ryy	4dd\	.	4ff#\	.	1ryy	1ryy	1ryy	.	.	.	.	.
8D\	.	.	.	.	.	.	.	.	.	.	.	.	.	.
*	*	*	*tremolo	*	*tremolo	*	*	*	*	*	*	*	*	*
8D\	.	.	16ff#\LL	.	16aa\LL	.	.	.	.	.	.	.	.	.
.	.	.	16ff#\	.	16aa\	.	.	.	.	.	.	.	.	.
8D\J	.	.	16ff#\	.	16aa\	.	.	.	.	.	.	.	.	.
.	.	.	16ff#\JJ	.	16aa\JJ	.	.	.	.	.	.	.	.	.
8D\L	.	.	16gg\LL	.	16bb\LL	.	.	.	.	.	.	.	.	.
.	.	.	16gg\	.	16bb\	.	.	.	.	.	.	.	.	.
8D\	.	.	16gg\	.	16bb\	.	.	.	.	.	.	.	.	.
.	.	.	16gg\JJ	.	16bb\JJ	.	.	.	.	.	.	.	.	.
8D\	.	.	16ee\LL	.	16ccc#\LL	.	.	.	.	.	.	.	.	.
.	.	.	16ee\	.	16ccc#\	.	.	.	.	.	.	.	.	.
8D\J	.	.	16ee\	.	16ccc#\	.	.	.	.	.	.	.	.	.
.	.	.	16ee\JJ	.	16ccc#\JJ	.	.	.	.	.	.	.	.	.
*Xtremolo	*	*	*	*	*	*	*	*	*	*	*	*	*	*
=14	=14	=14	=14	=14	=14	=14	=14	=14	=14	=14	=14	=14	=14	=14
*tuplet	*	*	*	*	*	*	*	*	*	*	*	*	*	*
!	!	!	!	!LO:DY:t=for	!	!LO:DY:t=f&colon;	!	!	!	!	!	!	!	!
8d\L	.	1ryy	16ff#\LL	f	16ddd\LL	f	1ryy	1ryy	1ryy	4D\	4F#/	4d\	4dd\	4ff#\
.	.	.	16ff#\	.	16ddd\	.	.	.	.	.	.	.	.	.
!LO:TUP:a:problem=klamra łukowa	!LO:DY:t=f&colon;	!	!	!	!	!	!	!	!	!	!	!	!	!
24A\L	f	.	16ff#\	.	16ddd\	.	.	.	.	.	.	.	.	.
24B\	.	.	.	.	.	.	.	.	.	.	.	.	.	.
.	.	.	16ff#\	.	16ddd\	.	.	.	.	.	.	.	.	.
24c#\JJ	.	.	.	.	.	.	.	.	.	.	.	.	.	.
8d\L	.	.	16ff#\	.	16ddd\	.	.	.	.	4r	4r	4r	4r	4r
.	.	.	16ff#\	.	16ddd\	.	.	.	.	.	.	.	.	.
*Xtuplet	*	*	*	*	*	*	*	*	*	*	*	*	*	*
24A\L	.	.	16ff#\	.	16ddd\	.	.	.	.	.	.	.	.	.
24B\	.	.	.	.	.	.	.	.	.	.	.	.	.	.
.	.	.	16ff#\JJ	.	16ddd\JJ	.	.	.	.	.	.	.	.	.
24c#\JJ	.	.	.	.	.	.	.	.	.	.	.	.	.	.
8d\L	.	.	16ff#\LL	.	16ddd\LL	.	.	.	.	2r	2r	2r	2r	2r
.	.	.	16ff#\	.	16ddd\	.	.	.	.	.	.	.	.	.
8c#\	.	.	16ff#\	.	16ddd\	.	.	.	.	.	.	.	.	.
.	.	.	16ff#\	.	16ddd\	.	.	.	.	.	.	.	.	.
8B\	.	.	16ff#\	.	16ddd\	.	.	.	.	.	.	.	.	.
.	.	.	16ff#\	.	16ddd\	.	.	.	.	.	.	.	.	.
8A#X\J	.	.	16ff#\	.	16ddd\	.	.	.	.	.	.	.	.	.
.	.	.	16ff#\JJ	.	16ddd\JJ	.	.	.	.	.	.	.	.	.
=15	=15	=15	=15	=15	=15	=15	=15	=15	=15	=15	=15	=15	=15	=15
8B\L	.	1ryy	16ff#\LL	.	16ddd\LL	.	1ryy	1ryy	1ryy	4D\	4F#/	4d\	4dd\	4ff#\
.	.	.	16ff#\	.	16ddd\	.	.	.	.	.	.	.	.	.
24F#\L	.	.	16ff#\	.	16ddd\	.	.	.	.	.	.	.	.	.
!LO:SIC:v:o=24G\	!	!	!	!	!	!	!	!	!	!	!	!	!	!
24G#\	.	.	.	.	.	.	.	.	.	.	.	.	.	.
.	.	.	16ff#\	.	16ddd\	.	.	.	.	.	.	.	.	.
24A#X\JJ	.	.	.	.	.	.	.	.	.	.	.	.	.	.
8B\L	.	.	16ff#\	.	16ddd\	.	.	.	.	4r	4r	4r	4r	4r
.	.	.	16ff#\	.	16ddd\	.	.	.	.	.	.	.	.	.
24F#\L	.	.	16ff#\	.	16ddd\	.	.	.	.	.	.	.	.	.
!LO:SIC:v:o=24G\	!	!	!	!	!	!	!	!	!	!	!	!	!	!
24G#\	.	.	.	.	.	.	.	.	.	.	.	.	.	.
.	.	.	16ff#\JJ	.	16ddd\JJ	.	.	.	.	.	.	.	.	.
24A#\JJ	.	.	.	.	.	.	.	.	.	.	.	.	.	.
8B\L	.	.	16ff#\LL	.	16ddd\LL	.	.	.	.	2r	2r	2r	2r	2r
.	.	.	16ff#\	.	16ddd\	.	.	.	.	.	.	.	.	.
!LO:SIC:v:o=8A#\	!	!	!	!	!	!	!	!	!	!	!	!	!	!
8An\	.	.	16ff#\	.	16ddd\	.	.	.	.	.	.	.	.	.
.	.	.	16ff#\	.	16ddd\	.	.	.	.	.	.	.	.	.
8Gny\	.	.	16ff#\	.	16ddd\	.	.	.	.	.	.	.	.	.
.	.	.	16ff#\	.	16ddd\	.	.	.	.	.	.	.	.	.
8F#\J	.	.	16ff#\	.	16ddd\	.	.	.	.	.	.	.	.	.
.	.	.	16ff#\JJ	.	16ddd\JJ	.	.	.	.	.	.	.	.	.
=16	=16	=16	=16	=16	=16	=16	=16	=16	=16	=16	=16	=16	=16	=16
!	!	!	!	!	!LO:LB:g=original	!	!	!	!	!LO:TX:t=18	!	!	!	!
8G\L	.	1ryy	16ee\LL	.	16ddd\LL	.	1ryy	1ryy	1ryy	00r	0r	0r	4dd\	4ee\
.	.	.	16ee\	.	16ddd\	.	.	.	.	.	.	.	.	.
16E\L	.	.	16ee\	.	16ddd\	.	.	.	.	.	.	.	.	.
16F#\JJ	.	.	16ee\	.	16ddd\	.	.	.	.	.	.	.	.	.
8G\L	.	.	16ee\	.	16ddd\	.	.	.	.	.	.	.	4r	4r
.	.	.	16ee\	.	16ddd\	.	.	.	.	.	.	.	.	.
8G\J	.	.	16ee\	.	16ddd\	.	.	.	.	.	.	.	.	.
.	.	.	16ee\JJ	.	16ddd\JJ	.	.	.	.	.	.	.	.	.
8G\L	.	.	16ee\LL	.	16ddd\LL	.	.	.	.	.	.	.	2r	2r
.	.	.	16ee\	.	16ddd\	.	.	.	.	.	.	.	.	.
8G\	.	.	16ee\	.	16ddd\	.	.	.	.	.	.	.	.	.
.	.	.	16ee\	.	16ddd\	.	.	.	.	.	.	.	.	.
8G#X\	.	.	16ee\	.	16ddd\	.	.	.	.	.	.	.	.	.
.	.	.	16ee\	.	16ddd\	.	.	.	.	.	.	.	.	.
8G#\J	.	.	16ee\	.	16ddd\	.	.	.	.	.	.	.	.	.
.	.	.	16ee\JJ	.	16ddd\JJ	.	.	.	.	.	.	.	.	.
=17	=17	=17	=17	=17	=17	=17	=17	=17	=17	=17	=17	=17	=17	=17
!	!	!	!LO:LB:g=original	!	!	!	!	!	!	!	!	!	!	!
8A\L	.	1ryy	16ee\LL	.	16ccc#\LL	.	1ryy	1ryy	1ryy	.	.	.	4cc#\	4ee\
.	.	.	16ee\	.	16ccc#\	.	.	.	.	.	.	.	.	.
8A\	.	.	16ee\	.	16ccc#\	.	.	.	.	.	.	.	.	.
.	.	.	16ee\	.	16ccc#\JJ	.	.	.	.	.	.	.	.	.
8G#X\	.	.	16ee\	.	16ddd\LL	.	.	.	.	.	.	.	4dd\	4ee\
.	.	.	16ee\	.	16ddd\	.	.	.	.	.	.	.	.	.
8G#\J	.	.	16ee\	.	16ddd\	.	.	.	.	.	.	.	.	.
.	.	.	16ee\JJ	.	16ddd\JJ	.	.	.	.	.	.	.	.	.
8A\L	.	.	16ee\LL	.	16ccc#\LL	.	.	.	.	.	.	.	4cc#\	4ee\
.	.	.	16ee\	.	16ccc#\	.	.	.	.	.	.	.	.	.
8A\	.	.	16ee\	.	16ccc#\	.	.	.	.	.	.	.	.	.
.	.	.	16ee\	.	16ccc#\JJ	.	.	.	.	.	.	.	.	.
8G#\	.	.	16ee\	.	16ddd\LL	.	.	.	.	.	.	.	4dd\	4ee\
.	.	.	16ee\	.	16ddd\	.	.	.	.	.	.	.	.	.
8G#\J	.	.	16ee\	.	16ddd\	.	.	.	.	.	.	.	.	.
.	.	.	16ee\JJ	.	16ddd\JJ	.	.	.	.	.	.	.	.	.
*	*	*	*Xtremolo	*	*Xtremolo	*	*	*	*	*	*	*	*	*
=18	=18	=18	=18	=18	=18	=18	=18	=18	=18	=18	=18	=18	=18	=18
4A\	.	1ryy	4ee\	.	4ccc#\	.	1ryy	1ryy	1ryy	.	4A/	4e\	4cc#\	4ee\
8AA/L	.	.	8ee\L	.	8ccc#\L	.	.	.	.	.	8A/L	8e\L	4cc#\	4ee\
8AA/J	.	.	8ee\J	.	8ccc#\J	.	.	.	.	.	8A/J	8e\J	.	.
4AA/	.	.	4ee\	.	4ccc#\	.	.	.	.	.	4A/	4e\	4cc#\	4ee\
4r	.	.	4r	.	4r	.	.	.	.	.	4r	4r	4r	4r
=19	=19	=19	=19	=19	=19	=19	=19	=19	=19	=19	=19	=19	=19	=19
*	*	*	*tremolo	*	*tremolo	*	*	*	*	*	*	*	*	*
!	!	!	!	!LO:DY:t=p&colon;:rj	!	!LO:DY:t=p&colon;:a	!	!	!	!	!	!	!	!
00r	.	1ryy	8A/L	p	8A/L	p	1ryy	1ryy	1ryy	.	00r	00r	4cc#\	4ee\
.	.	.	8A/	.	8A/	.	.	.	.	.	.	.	.	.
.	.	.	8A/	.	8A/	.	.	.	.	.	.	.	8ff#\L	(8aa\L
.	.	.	8A/J	.	8A/J	.	.	.	.	.	.	.	8ee\J	8gg#X\)
.	.	.	8A/L	.	8A/L	.	.	.	.	.	.	.	8dd\L	8ff#|\
.	.	.	8A/	.	8A/	.	.	.	.	.	.	.	8cc#\	8ee|\J
.	.	.	8A/	.	8A/	.	.	.	.	.	.	.	8b\	8dd|\L
.	.	.	8A/J	.	8A/J	.	.	.	.	.	.	.	8a\J	8cc#|\J
=20	=20	=20	=20	=20	=20	=20	=20	=20	=20	=20	=20	=20	=20	=20
.	.	1ryy	8A/L	.	8A/L	.	1ryy	1ryy	1ryy	00r	.	.	8cc#\L	(8ee\L
.	.	.	8A/	.	8A/	.	.	.	.	.	.	.	8b\	8dd\)
.	.	.	8A/	.	8A/	.	.	.	.	.	.	.	8b\	(8dd\
.	.	.	8A/J	.	8A/J	.	.	.	.	.	.	.	8a#X\J	8cc#\J)
.	.	.	8A/L	.	8A/L	.	.	.	.	.	.	.	4b\	4dd\
.	.	.	8A/	.	8A/	.	.	.	.	.	.	.	.	.
.	.	.	8A/	.	8A/	.	.	.	.	.	.	.	4r	4r
.	.	.	8A/J	.	8A/J	.	.	.	.	.	.	.	.	.
=21	=21	=21	=21	=21	=21	=21	=21	=21	=21	=21	=21	=21	=21	=21
.	.	1ryy	8e/L	.	8e/L	.	1ryy	1ryy	1ryy	.	.	.	4b\	4dd\
.	.	.	8e/	.	8e/	.	.	.	.	.	.	.	.	.
.	.	.	8e/	.	8e/	.	.	.	.	.	.	.	8gg#X\L	(8bb\L
.	.	.	8e/J	.	8e/J	.	.	.	.	.	.	.	8ff#\J	8aa\J)
.	.	.	8e/L	.	8e/L	.	.	.	.	.	.	.	8ee\L	8gg#X|\L
.	.	.	8e/	.	8e/	.	.	.	.	.	.	.	8dd\	8ff#|\
.	.	.	8e/	.	8e/	.	.	.	.	.	.	.	8cc#\	8ee|\
.	.	.	8e/J	.	8e/J	.	.	.	.	.	.	.	8b\J	8dd|\J
=22	=22	=22	=22	=22	=22	=22	=22	=22	=22	=22	=22	=22	=22	=22
!	!	!	!	!	!	!	!	!	!	!	!	!	!LO:LB:g=original	!LO:LB:g=original
.	.	1ryy	8A/L	.	8A/L	.	1ryy	1ryy	1ryy	.	.	.	8b\L	(8dd\L
.	.	.	8A/	.	8A/	.	.	.	.	.	.	.	8a\	8cc#\)
.	.	.	8A/	.	8A/	.	.	.	.	.	.	.	8a\	8cc#|\
.	.	.	8A/J	.	8A/J	.	.	.	.	.	.	.	8g#X\J	8b|\J
.	.	.	8A/L	.	8A/L	.	.	.	.	.	.	.	4a\	4cc#\
.	.	.	8A/	.	8A/	.	.	.	.	.	.	.	.	.
.	.	.	8A/	.	8A/	.	.	.	.	.	.	.	8cc#\L	8ee\L
.	.	.	8A/J	.	8A/J	.	.	.	.	.	.	.	8a\J	8cc#\J
=23	=23	=23	=23	=23	=23	=23	=23	=23	=23	=23	=23	=23	=23	=23
0r	.	1ryy	8A/L	.	8A/L	.	1ryy	1ryy	1ryy	.	00r	00r	8dd\L	(8ff#\L
.	.	.	8A/	.	8A/	.	.	.	.	.	.	.	16cc#\L	16ee\L
.	.	.	.	.	.	.	.	.	.	.	.	.	16dd\JJ	16ff#\JJ)
.	.	.	8A/	.	8A/	.	.	.	.	.	.	.	4cc#\	4ee\
.	.	.	8A/J	.	8A/J	.	.	.	.	.	.	.	.	.
.	.	.	8A/L	.	8A/L	.	.	.	.	.	.	.	8b\L	8dd\L
.	.	.	8A/	.	8A/	.	.	.	.	.	.	.	16a\L	16cc#\L
.	.	.	.	.	.	.	.	.	.	.	.	.	16b\JJ	16dd\JJ
.	.	.	8A/	.	8A/	.	.	.	.	.	.	.	4a\	4cc#\
.	.	.	8A/J	.	8A/J	.	.	.	.	.	.	.	.	.
=24	=24	=24	=24	=24	=24	=24	=24	=24	=24	=24	=24	=24	=24	=24
.	.	1ryy	8A/L	.	8A/L	.	1ryy	1ryy	1ryy	00r	.	.	8dd\L	8ff#\L
.	.	.	8A/	.	8A/	.	.	.	.	.	.	.	16cc#\L	16ee\L
.	.	.	.	.	.	.	.	.	.	.	.	.	16dd\JJ	16ff#\JJ
.	.	.	8A/	.	8A/	.	.	.	.	.	.	.	4cc#\	4ee\
.	.	.	8A/J	.	8A/J	.	.	.	.	.	.	.	.	.
.	.	.	8A/L	.	8A/L	.	.	.	.	.	.	.	8b\L	8dd\L
.	.	.	8A/	.	8A/	.	.	.	.	.	.	.	16a\L	16cc#\L
.	.	.	.	.	.	.	.	.	.	.	.	.	16b\JJ	16dd\JJ
.	.	.	8A/	.	8A/	.	.	.	.	.	.	.	4a\	4cc#\
.	.	.	8A/J	.	8A/J	.	.	.	.	.	.	.	.	.
=25	=25	=25	=25	=25	=25	=25	=25	=25	=25	=25	=25	=25	=25	=25
1r	.	1ryy	8d/L	.	8d/L	.	1ryy	1ryy	1ryy	.	.	.	4f#/	4b\
.	.	.	8d/	.	8d/	.	.	.	.	.	.	.	.	.
.	.	.	8d/	.	8d/	.	.	.	.	.	.	.	8dd\L	8ff#\L
.	.	.	8d/J	.	8d/J	.	.	.	.	.	.	.	16cc#\L	16ee\L
.	.	.	.	.	.	.	.	.	.	.	.	.	16b\JJ	16dd\JJ
.	.	.	8e/L	.	8e/L	.	.	.	.	.	.	.	4a\	4cc#\
.	.	.	8e/	.	8e/	.	.	.	.	.	.	.	.	.
.	.	.	8e/	.	8e/	.	.	.	.	.	.	.	4g#X\	4b\
.	.	.	8e/J	.	8e/J	.	.	.	.	.	.	.	.	.
*	*	*	*Xtremolo	*	*Xtremolo	*	*	*	*	*	*	*	*	*
=26	=26	=26	=26	=26	=26	=26	=26	=26	=26	=26	=26	=26	=26	=26
!LO:LB:g=original	!	!	!	!	!	!	!	!	!	!	!	!	!	!
4AA/	.	1ryy	4A/	.	4A/	.	1ryy	1ryy	1ryy	.	.	.	4a\	4a/
!	!LO:DY:t=f&colon;	!	!	!	!	!LO:DY:t=f.	!	!	!	!	!	!	!	!
8A\L	f	.	8a\L	.	8a\L	f	.	.	.	.	.	.	4r	4r
8B\J	.	.	8b\J	.	8b\J	.	.	.	.	.	.	.	.	.
!	!	!	!	!	!LO:LB:g=original	!	!	!	!	!	!	!	!	!
8A\L	.	.	8a/L	.	8a|/L	.	.	.	.	.	.	.	2r	2r
8G\	.	.	8g/	.	8g|/	.	.	.	.	.	.	.	.	.
8F#\	.	.	8f#/	.	8f#|/	.	.	.	.	.	.	.	.	.
8E\J	.	.	8e/J	.	8e|/J	.	.	.	.	.	.	.	.	.
=27	=27	=27	=27	=27	=27	=27	=27	=27	=27	=27	=27	=27	=27	=27
*tremolo	*	*	*	*	*	*	*	*	*	*	*	*	*	*
!	!LO:DY:t=p&colon;:rj	!	!	!	!	!	!	!	!	!	!	!	!	!
8D\L	p	1ryy	4d/	.	4d/	.	1ryy	1ryy	1ryy	.	4f#\	4a\	00r	00r
8D\	.	.	.	.	.	.	.	.	.	.	.	.	.	.
8D\	.	.	4r	.	4r	.	.	.	.	.	8b\L	8dd\L	.	.
!	!	!	!	!	!	!	!	!	!	!	!	!LO:N:acc=#	!	!
8D\J	.	.	.	.	.	.	.	.	.	.	8a\J	8cc#X\J	.	.
8D\L	.	.	2r	.	2r	.	.	.	.	.	8g\L	8b\L	.	.
8D\	.	.	.	.	.	.	.	.	.	.	8f#\	8a\	.	.
8D\	.	.	.	.	.	.	.	.	.	.	8e\	8g\	.	.
8D\J	.	.	.	.	.	.	.	.	.	.	8d\J	8f#\J	.	.
=28	=28	=28	=28	=28	=28	=28	=28	=28	=28	=28	=28	=28	=28	=28
!	!	!	!LO:LB:g=original	!	!	!	!	!	!	!	!	!	!	!
8D\L	.	1ryy	00r	.	00r	.	1ryy	1ryy	1ryy	00r	4e\	4g\	.	.
8D\	.	.	.	.	.	.	.	.	.	.	.	.	.	.
8D\	.	.	.	.	.	.	.	.	.	.	8e\L	8g\L	.	.
!	!	!	!	!	!	!	!	!	!	!	!	!LO:N:acc=#	!	!
8D\J	.	.	.	.	.	.	.	.	.	.	8d#X\J	8f#X\J	.	.
8D\L	.	.	.	.	.	.	.	.	.	.	4e\	4g\	.	.
8D\	.	.	.	.	.	.	.	.	.	.	.	.	.	.
8D\	.	.	.	.	.	.	.	.	.	.	4r	4r	.	.
8D\J	.	.	.	.	.	.	.	.	.	.	.	.	.	.
=29	=29	=29	=29	=29	=29	=29	=29	=29	=29	=29	=29	=29	=29	=29
!	!	!	!	!	!	!	!	!	!	!	!	!LO:LB:g=original	!	!
8A\L	.	1ryy	.	.	.	.	1ryy	1ryy	1ryy	.	4e\	4g\	.	.
8A\	.	.	.	.	.	.	.	.	.	.	.	.	.	.
8A\	.	.	.	.	.	.	.	.	.	.	8f#\L	8a\L	.	.
8A\J	.	.	.	.	.	.	.	.	.	.	8g\J	8b\J	.	.
8A\L	.	.	.	.	.	.	.	.	.	.	8g\L	8b\L	.	.
8A\	.	.	.	.	.	.	.	.	.	.	8f#\	8a\	.	.
8A\	.	.	.	.	.	.	.	.	.	.	8f#\	8a\	.	.
8A\J	.	.	.	.	.	.	.	.	.	.	8e\J	8g\J	.	.
=30	=30	=30	=30	=30	=30	=30	=30	=30	=30	=30	=30	=30	=30	=30
!	!	!	!	!	!	!	!	!	!	!	!LO:LB:g=original	!	!	!
8D\L	.	1ryy	.	.	.	.	1ryy	1ryy	1ryy	.	8e\L	8g\L	.	.
8D\	.	.	.	.	.	.	.	.	.	.	8d\	8f#\	.	.
8D\	.	.	.	.	.	.	.	.	.	.	8d\	8f#\	.	.
8D\J	.	.	.	.	.	.	.	.	.	.	8A\J	8e\J	.	.
8D\L	.	.	.	.	.	.	.	.	.	.	4d\	4f#\	.	.
8D\	.	.	.	.	.	.	.	.	.	.	.	.	.	.
8D\	.	.	.	.	.	.	.	.	.	.	4r	4r	.	.
8D\J	.	.	.	.	.	.	.	.	.	.	.	.	.	.
=31	=31	=31	=31	=31	=31	=31	=31	=31	=31	=31	=31	=31	=31	=31
8D\L	.	1ryy	.	.	.	.	1ryy	1ryy	1ryy	.	8e\L	8g\L	0r	0r
!	!	!	!	!	!	!	!	!	!	!	!	!LO:N:vis=8	!	!
8D\	.	.	.	.	.	.	.	.	.	.	16f#\L	16a\	.	.
!	!	!	!	!	!	!	!	!	!	!	!	!LO:N:vis=8	!	!
.	.	.	.	.	.	.	.	.	.	.	16e\JJ	16g\J	.	.
8D\	.	.	.	.	.	.	.	.	.	.	4d\	4f#\	.	.
8D\J	.	.	.	.	.	.	.	.	.	.	.	.	.	.
8D\L	.	.	.	.	.	.	.	.	.	.	8g\L	8b\L	.	.
!	!	!	!	!	!	!	!	!	!	!	!	!LO:N:vis=8:acc=#	!	!
8D\	.	.	.	.	.	.	.	.	.	.	16a\L	16cc#X\	.	.
!	!	!	!	!	!	!	!	!	!	!	!	!LO:N:vis=8	!	!
.	.	.	.	.	.	.	.	.	.	.	16g\JJ	16b\J	.	.
8D\	.	.	.	.	.	.	.	.	.	.	4f#\	4a\	.	.
8D\J	.	.	.	.	.	.	.	.	.	.	.	.	.	.
=32	=32	=32	=32	=32	=32	=32	=32	=32	=32	=32	=32	=32	=32	=32
8D\L	.	1ryy	0r	.	0r	.	1ryy	1ryy	1ryy	0r	8e\L	8g\L	.	.
!	!	!	!	!	!	!	!	!	!	!	!	!LO:N:vis=8	!	!
8D\	.	.	.	.	.	.	.	.	.	.	16f#\L	16a\	.	.
!	!	!	!	!	!	!	!	!	!	!	!	!LO:N:vis=8	!	!
.	.	.	.	.	.	.	.	.	.	.	16e\JJ	16g\J	.	.
8D\	.	.	.	.	.	.	.	.	.	.	4d\	4f#\	.	.
8D\J	.	.	.	.	.	.	.	.	.	.	.	.	.	.
8D\L	.	.	.	.	.	.	.	.	.	.	8g\L	8b\L	.	.
!	!	!	!	!	!	!	!	!	!	!	!	!LO:N:vis=8:acc=#	!	!
8D\	.	.	.	.	.	.	.	.	.	.	16a\L	16cc#X\	.	.
!	!	!	!	!	!	!	!	!	!	!	!	!LO:N:vis=8	!	!
.	.	.	.	.	.	.	.	.	.	.	16g\JJ	16b\J	.	.
8D\	.	.	.	.	.	.	.	.	.	.	4f#\	4a\	.	.
8D\J	.	.	.	.	.	.	.	.	.	.	.	.	.	.
=33	=33	=33	=33	=33	=33	=33	=33	=33	=33	=33	=33	=33	=33	=33
8G\L	.	1ryy	.	.	.	.	1ryy	1ryy	1ryy	.	4.g\	4.b\	1r	1r
8G\	.	.	.	.	.	.	.	.	.	.	.	.	.	.
8G\	.	.	.	.	.	.	.	.	.	.	.	.	.	.
8G\J	.	.	.	.	.	.	.	.	.	.	16f#\LL	16a\LL	.	.
.	.	.	.	.	.	.	.	.	.	.	16e\JJ	16g\JJ	.	.
*Xtremolo	*	*	*	*	*	*	*	*	*	*	*	*	*	*
!LO:TX:t=P:problem=mixed beam	!	!	!	!	!	!	!	!	!	!	!	!	!	!
8A\L	.	.	.	.	.	.	.	.	.	.	4d\	4f#\	.	.
8A\	.	.	.	.	.	.	.	.	.	.	.	.	.	.
8AA/	.	.	.	.	.	.	.	.	.	.	4A\	4e\	.	.
8AA/J	.	.	.	.	.	.	.	.	.	.	.	.	.	.
=	=	=	=	=	=	=	=	=	=	=	=	=	=	=
!LO:TX:t=P:problem=zbędny takt vl 1	!	!	!LO:TX:t=P:problem=zbędny takt vl 1	!	!LO:TX:t=P:problem=zbędny jeden takt pauzy	!	!	!	!	!LO:TX:t=P:problem=zbędny takt vl 1	!LO:TX:t=P:problem=zbędny takt vl 1	!LO:TX:t=P:problem=zbędny takt vl 1	!LO:TX:t=P:problem=zbędny takt vl 1	!LO:TX:t=P:problem=zbędny takt vl 1
1ryy	.	1ryy	1ryy	.	1r	.	1ryy	1ryy	1ryy	1ryy	1ryy	1ryy	1ryy	1ryy
=34	=34	=34	=34	=34	=34	=34	=34	=34	=34	=34	=34	=34	=34	=34
*	*	*	*tremolo	*	*tremolo	*	*	*	*	*	*	*	*	*
8d\L	.	1ryy	16ff#\LL	.	16ddd\LL	.	1ryy	1ryy	1ryy	4D\	4F#/	4d\	4dd\	4ff#\
.	.	.	16ff#\	.	16ddd\	.	.	.	.	.	.	.	.	.
*tuplet	*	*	*	*	*	*	*	*	*	*	*	*	*	*
!LO:TUP:a:problem=klamra łukowa	!	!	!	!	!	!	!	!	!	!	!	!	!	!
24A\L	.	.	16ff#\	.	16ddd\	.	.	.	.	.	.	.	.	.
24B\	.	.	.	.	.	.	.	.	.	.	.	.	.	.
.	.	.	16ff#\	.	16ddd\	.	.	.	.	.	.	.	.	.
24c#\JJ	.	.	.	.	.	.	.	.	.	.	.	.	.	.
*Xtuplet	*	*	*	*	*	*	*	*	*	*	*	*	*	*
8d\L	.	.	16ff#\	.	16ddd\	.	.	.	.	4r	4r	4r	4r	4r
.	.	.	16ff#\	.	16ddd\	.	.	.	.	.	.	.	.	.
24A\L	.	.	16ff#\	.	16ddd\	.	.	.	.	.	.	.	.	.
24B\	.	.	.	.	.	.	.	.	.	.	.	.	.	.
.	.	.	16ff#\JJ	.	16ddd\JJ	.	.	.	.	.	.	.	.	.
24c#\JJ	.	.	.	.	.	.	.	.	.	.	.	.	.	.
8d\L	.	.	16ff#\LL	.	16ddd\LL	.	.	.	.	2r	2r	2r	2r	2r
.	.	.	16ff#\	.	16ddd\	.	.	.	.	.	.	.	.	.
8c#\	.	.	16ff#\	.	16ddd\	.	.	.	.	.	.	.	.	.
.	.	.	16ff#\	.	16ddd\	.	.	.	.	.	.	.	.	.
8B\	.	.	16ff#\	.	16ddd\	.	.	.	.	.	.	.	.	.
.	.	.	16ff#\	.	16ddd\	.	.	.	.	.	.	.	.	.
8A#X\J	.	.	16ff#\	.	16ddd\	.	.	.	.	.	.	.	.	.
.	.	.	16ff#\JJ	.	16ddd\JJ	.	.	.	.	.	.	.	.	.
=35	=35	=35	=35	=35	=35	=35	=35	=35	=35	=35	=35	=35	=35	=35
!LO:LB:g=original	!	!	!	!	!	!	!	!	!	!	!	!	!	!
8B\L	.	1ryy	16ff#\LL	.	16ddd\LL	.	1ryy	1ryy	1ryy	4D\	4F#/	4d\	4dd\	4ff#\
.	.	.	16ff#\	.	16ddd\	.	.	.	.	.	.	.	.	.
24F#\L	.	.	16ff#\	.	16ddd\	.	.	.	.	.	.	.	.	.
!LO:SIC:v:o=24G\	!	!	!	!	!	!	!	!	!	!	!	!	!	!
24G#\	.	.	.	.	.	.	.	.	.	.	.	.	.	.
.	.	.	16ff#\	.	16ddd\	.	.	.	.	.	.	.	.	.
24A#X\JJ	.	.	.	.	.	.	.	.	.	.	.	.	.	.
8B\L	.	.	16ff#\	.	16ddd\	.	.	.	.	4r	4r	4r	4r	4r
.	.	.	16ff#\	.	16ddd\	.	.	.	.	.	.	.	.	.
24F#\L	.	.	16ff#\	.	16ddd\	.	.	.	.	.	.	.	.	.
!LO:SIC:v:o=24G\	!	!	!	!	!	!	!	!	!	!	!	!	!	!
24G#\	.	.	.	.	.	.	.	.	.	.	.	.	.	.
.	.	.	16ff#\JJ	.	16ddd\JJ	.	.	.	.	.	.	.	.	.
24A#\JJ	.	.	.	.	.	.	.	.	.	.	.	.	.	.
8B\L	.	.	16ff#\LL	.	16ddd\LL	.	.	.	.	2r	2r	2r	2r	2r
.	.	.	16ff#\	.	16ddd\	.	.	.	.	.	.	.	.	.
!LO:SIC:v:o=8A#\	!	!	!	!	!	!	!	!	!	!	!	!	!	!
8An\	.	.	16ff#\	.	16ddd\	.	.	.	.	.	.	.	.	.
.	.	.	16ff#\	.	16ddd\	.	.	.	.	.	.	.	.	.
8Gny\	.	.	16ff#\	.	16ddd\	.	.	.	.	.	.	.	.	.
.	.	.	16ff#\	.	16ddd\	.	.	.	.	.	.	.	.	.
8F#\J	.	.	16ff#\	.	16ddd\	.	.	.	.	.	.	.	.	.
.	.	.	16ff#\JJ	.	16ddd\JJ	.	.	.	.	.	.	.	.	.
=36	=36	=36	=36	=36	=36	=36	=36	=36	=36	=36	=36	=36	=36	=36
!	!	!	!	!	!	!	!	!	!	!LO:LB:g=original	!	!LO:LB:g=original	!	!
8G\L	.	1ryy	16ee\LL	.	16ddd\LL	.	1ryy	1ryy	1ryy	1r	2r	2r	2r	2r
.	.	.	16ee\	.	16ddd\	.	.	.	.	.	.	.	.	.
16E\L	.	.	16ee\	.	16ddd\	.	.	.	.	.	.	.	.	.
16F#\JJ	.	.	16ee\	.	16ddd\	.	.	.	.	.	.	.	.	.
8G\L	.	.	16ee\	.	16ddd\	.	.	.	.	.	.	.	.	.
.	.	.	16ee\	.	16ddd\	.	.	.	.	.	.	.	.	.
8G\J	.	.	16ee\	.	16ddd\	.	.	.	.	.	.	.	.	.
.	.	.	16ee\JJ	.	16ddd\JJ	.	.	.	.	.	.	.	.	.
!LO:TX:t=P:problem=mixed beam	!	!	!	!	!	!	!	!	!	!	!	!	!	!
8A\L	.	.	16ff#\LL	.	16ddd\LL	.	.	.	.	.	4F#/	4d\	4dd\	4ff#\
.	.	.	16ff#\	.	16ddd\	.	.	.	.	.	.	.	.	.
8A\	.	.	16ff#\	.	16ddd\	.	.	.	.	.	.	.	.	.
.	.	.	16ff#\JJ	.	16ddd\JJ	.	.	.	.	.	.	.	.	.
8AA/	.	.	16ee\LL	.	16ccc#\LL	.	.	.	.	.	4A/	4e\	4cc#\	4ee\
.	.	.	16ee\	.	16ccc#\	.	.	.	.	.	.	.	.	.
8AA/J	.	.	16ee\	.	16ccc#\	.	.	.	.	.	.	.	.	.
.	.	.	16ee\JJ	.	16ccc#\JJ	.	.	.	.	.	.	.	.	.
*	*	*	*	*	*Xtremolo	*	*	*	*	*	*	*	*	*
*tremolo	*	*	*Xtremolo	*	*	*	*	*	*	*	*	*	*	*
=37	=37	=37	=37	=37	=37	=37	=37	=37	=37	=37	=37	=37	=37	=37
!	!	!	!	!	!	!	!	!	!	!	!	!	!LO:LB:g=original	!LO:LB:g=original
8D\L	.	1ryy	8ff#\L	.	8ddd\L	.	1ryy	1ryy	1ryy	4D\	4F#/	4d\	8dd\L	8ff#\L
8D\	.	.	16ff#\L	.	16aa\L	.	.	.	.	.	.	.	8ff#\	8aa\
.	.	.	16ff#\JJ	.	16aa\JJ	.	.	.	.	.	.	.	.	.
8D\	.	.	8ff#\L	.	8aa\L	.	.	.	.	4r	8F#/L	8d\L	8ff#\	8aa\
8D\J	.	.	16dd\L	.	16ff#\L	.	.	.	.	.	8F#/J	8d\J	8dd\J	8ff#\J
.	.	.	16dd\JJ	.	16ff#\JJ	.	.	.	.	.	.	.	.	.
!	!	!	!	!	!	!	!	!	!	!	!LO:LB:g=original	!	!	!
8D\L	.	.	8ff#\L	.	8aa\L	.	.	.	.	4D\	4F#/	4d\	8ff#\L	8aa\L
8D\	.	.	16dd\L	.	16ff#\L	.	.	.	.	.	.	.	8dd\	8ff#\
.	.	.	16dd\JJ	.	16ff#\JJ	.	.	.	.	.	.	.	.	.
8D\	.	.	8dd\L	.	8ff#\L	.	.	.	.	4D\yy	8F#/L	8d\L	8dd\	8ff#\
8D\J	.	.	16f#\L	.	16dd\L	.	.	.	.	.	8F#/J	8d\J	8a\J	8dd\J
.	.	.	16f#\JJ	.	16dd\JJ	.	.	.	.	.	.	.	.	.
=38	=38	=38	=38	=38	=38	=38	=38	=38	=38	=38	=38	=38	=38	=38
8D\L	.	1ryy	8dd\L	.	8ff#\L	.	1ryy	1ryy	1ryy	4D\	4F#/	4d\	8dd/L	8ff#\L
8D\	.	.	16f#\L	.	16dd\L	.	.	.	.	.	.	.	8f#/	8dd\
.	.	.	16f#\JJ	.	16dd\JJ	.	.	.	.	.	.	.	.	.
8D\	.	.	8f#\L	.	8dd\L	.	.	.	.	4r	8F#/L	8d\L	8f#/	8dd\
8D\J	.	.	16f#\L	.	16a\L	.	.	.	.	.	8F#/J	8d\J	8f#/J	8a\J
.	.	.	16f#\JJ	.	16a\JJ	.	.	.	.	.	.	.	.	.
8D\L	.	.	8f#/L	.	8dd\L	.	.	.	.	4D\	4F#/	4d\	8f#/L	8dd\L
8D\	.	.	16f#/L	.	16a\L	.	.	.	.	.	.	.	8d/	8a\
.	.	.	16f#/JJ	.	16a\JJ	.	.	.	.	.	.	.	.	.
8D\	.	.	8f#/L	.	8a\L	.	.	.	.	4r	8F#/L	8d\L	8d/	8a\
8D\J	.	.	16d/L	.	16f#\L	.	.	.	.	.	8F#/J	8d\J	8d/J	8f#\J
.	.	.	16d/JJ	.	16f#\JJ	.	.	.	.	.	.	.	.	.
=39	=39	=39	=39	=39	=39	=39	=39	=39	=39	=39	=39	=39	=39	=39
8D\L	.	1ryy	4d/ 4dd	.	4d/	.	1ryy	1ryy	1ryy	4D\	4F#/	4d\	4d/	4ff#\
8D\	.	.	.	.	.	.	.	.	.	.	.	.	.	.
8D\	.	.	8d/L 8dd	.	8d\L 8a 8ff#	.	.	.	.	4D\	4F#/	4d\	8dd\L	8ff#\L
8D\J	.	.	8d/J 8dd	.	8d\J 8a 8ff#	.	.	.	.	.	.	.	8dd\J	8ff#\J
*	*	*	*	*	*	*	*	*	*	*	*	*	*tremolo	*
8D\L	.	.	8d/L 8dd	.	8d\L 8a 8ff#	.	.	.	.	4D\	4F#/	4d\	8dd\L	4ff#\
8D\	.	.	8d/ 8dd	.	8d\ 8a 8ff#	.	.	.	.	.	.	.	8dd\	.
8D\	.	.	8d/ 8dd	.	8d\ 8a 8ff#	.	.	.	.	4D\	4F#/	4d\	8dd\	4ff#\
8D\J	.	.	8d/J 8ff#	.	8d\J 8a 8aa	.	.	.	.	.	.	.	8dd\J	.
*	*	*	*	*	*	*	*	*	*	*	*	*	*Xtremolo	*
*Xtremolo	*	*	*	*	*	*	*	*	*	*	*	*	*	*
=40	=40	=40	=40	=40	=40	=40	=40	=40	=40	=40	=40	=40	=40	=40
!LO:TX:t=P:problem=ostatni takt należy do recitativo (attacca)	!	!	!LO:TX:t=P:problem=ostatni takt należy do recitativo (attacca)	!	!LO:TX:t=P:problem=ostatni takt należy do recitativo (attacca)	!	!	!	!	!	!	!	!	!
1ryy	.	1ryy	1ryy	.	1ryy	.	1ryy	1ryy	1ryy	2D\	2F#/	2d\	4dd\	4ff#\
.	.	.	.	.	.	.	.	.	.	.	.	.	4r	4r
.	.	.	.	.	.	.	.	.	.	2r	2r	2r	2r	2r
!	!	!	!	!	!	!	!	!	!	!LO:TX:b:i:t=Retiqe Tace	!LO:TX:b:i:t=Recit Tace in D	!LO:TX:b:i:t=Recit Tace in D.	!LO:TX:b:i:t=Recit Tace	!LO:TX:b:i:t=Recitativo Tace:rj
==	==	==	==	==	==	==	==	==	==	==	==	==	==	==
*-	*-	*-	*-	*-	*-	*-	*-	*-	*-	*-	*-	*-	*-	*-
!!!system-decoration: [(s1,s2)][(s3,s4)](s5)[(s6,s7,s8)][(s9,s10,s11)](s12)
!!!RDF**kern: | = vertical stroke
!!!RDF**kern: > = above
!!!RDF**kern: < = below
!!!ENC: Mateusz Solarz
!!!END: 2020-10-06
!!!ENC: Krzysztof Stępień
!!!END: 2022-01-28
